#ifndef USERPREFS_HAS_SPLASH
#define icon_width 50
#define icon_height 28
static uint8_t icon_bits[] = {
 0x00,0x00,0xf8,0x01,0x00,0x00,0xfc,0x00,0x00,0xfc,0x03,0x00,
 0x00,0xfc,0x00,0x00,0xfc,0x07,0x00,0x00,0xfc,0x00,0x00,0x1e,
 0x0f,0x00,0x00,0xfc,0x00,0x00,0x1f,0x1e,0x00,0x00,0xfc,0x00,
 0x00,0x0f,0x3c,0x00,0x00,0xfc,0x00,0x80,0x07,0x78,0x00,0x00,
 0xfc,0x00,0x80,0x07,0xf0,0x00,0x00,0xfc,0x00,0xc0,0x03,0xe0,
 0x31,0x00,0xfc,0x00,0xe0,0x01,0xe0,0x71,0x00,0xfc,0x00,0xe0,
 0x01,0xf0,0xf0,0x00,0xfc,0x00,0xf0,0xff,0x7f,0xe0,0x01,0xfc,
 0x00,0xf8,0xff,0x3f,0xc0,0x03,0xfc,0x00,0xf8,0xff,0x1f,0x86,
 0x07,0xfc,0x00,0x3c,0x0f,0x00,0x0e,0x0f,0xfc,0x00,0x1e,0x1e,
 0x00,0x1c,0x1e,0xfc,0x00,0x1e,0x3c,0x00,0x38,0x3c,0xfc,0x00,
 0x0f,0x78,0x00,0x70,0x38,0xfc,0x80,0x07,0xf0,0x00,0x70,0x38,
 0xfc,0x80,0x07,0xe0,0x01,0x38,0x3c,0xfc,0xc0,0x03,0xc0,0x03,
 0x1c,0x1e,0xfc,0xe0,0x01,0x80,0x07,0x0e,0x0f,0xfc,0xe0,0x00,
 0x00,0x0f,0x86,0x07,0xfc,0xf0,0x00,0x00,0x1e,0xc0,0x03,0xfc,
 0x78,0x00,0x00,0x3c,0xe0,0x01,0xfc,0xf8,0xff,0xff,0x7f,0xf0,
 0x00,0xfc,0xf8,0xff,0xff,0x7f,0x70,0x00,0xfc,0xf0,0xff,0xff,
 0x3f,0x30,0x00,0xfc,};
#endif